X: 6857
T: Charlie Mulvihill's
R: hornpipe
M: 4/4
K: Gmajor
(3DEF|:GFGA BAGF|EGcB ADEF|GFGB dedB|AG (3EFG A2 Bc|
dedc BAGF|EGcB ADEF|GFGe dBGB|ADFA G2:|
(3def|:gGfG eGdc|BG (3Bcd g2 fg|aAgA fAeA|d^cde d2 (3def|
gGfG eGdc|BGBd gd (3Bcd|cBce dBGB|1 ADFA G2 (3def:|2 ADFA G2||

